X:25
T:Polska från Västergötland
T:Svenska Folkdansar H1 nr 25
O:Västergötland
B:Traditioner av Svenska Folkdansar Häfte 1, nr 25
R:Polska
Z:Nils L
U:V = wedge
M:3/4
L:1/8
K:F
F2 f>e f>d | c2 c>B A>B | c2 (f>g) (e>f) |  Vd2 (d>e)  c2  |
c2 f>e f>d | c2 c>B A>G | c2 d>c   A>B   |1 G2  {AG}F4 z4 :|2 (G2 F4) z4 |]

